elementary-add/apps/48/libreoffice-startcenter.svg

<?xml version="1.0" encoding="UTF-8" standalone="no"?>
<!-- Created with Inkscape (http://www.inkscape.org/) -->

<svg
   xmlns:dc="http://purl.org/dc/elements/1.1/"
   xmlns:cc="http://creativecommons.org/ns#"
   xmlns:rdf="http://www.w3.org/1999/02/22-rdf-syntax-ns#"
   xmlns:svg="http://www.w3.org/2000/svg"
   xmlns="http://www.w3.org/2000/svg"
   xmlns:xlink="http://www.w3.org/1999/xlink"
   xmlns:sodipodi="http://sodipodi.sourceforge.net/DTD/sodipodi-0.dtd"
   xmlns:inkscape="http://www.inkscape.org/namespaces/inkscape"
   width="48px"
   height="48px"
   id="svg4369"
   version="1.1"
   inkscape:version="0.48.4 r9939"
   sodipodi:docname="applications-office.svg">
  <defs
     id="defs4371">
    <linearGradient
       y2="43"
       x2="23.99999"
       y1="4.999989"
       x1="23.99999"
       gradientTransform="translate(2.4e-6,0.9674485)"
       gradientUnits="userSpaceOnUse"
       id="linearGradient3497"
       xlink:href="#linearGradient3924-4"
       inkscape:collect="always" />
    <linearGradient
       id="linearGradient3924-4">
      <stop
         id="stop3926-8"
         style="stop-color:#ffffff;stop-opacity:1"
         offset="0" />
      <stop
         id="stop3928-6"
         style="stop-color:#ffffff;stop-opacity:0.23529412"
         offset="0.06316455" />
      <stop
         id="stop3930-4"
         style="stop-color:#ffffff;stop-opacity:0.15686275"
         offset="0.95056331" />
      <stop
         id="stop3932-4"
         style="stop-color:#ffffff;stop-opacity:0.39215687"
         offset="1" />
    </linearGradient>
    <radialGradient
       inkscape:collect="always"
       xlink:href="#linearGradient5344-867-2"
       id="radialGradient3351-4"
       gradientUnits="userSpaceOnUse"
       gradientTransform="matrix(-1.6167311e-7,4.3521892,-8.0922115,-1.30641e-7,102.55944,-28.435087)"
       cx="7.8060555"
       cy="9.9571075"
       fx="7.2758255"
       fy="9.9571075"
       r="12.671875" />
    <linearGradient
       id="linearGradient5344-867-2">
      <stop
         offset="0"
         style="stop-color:#c5c5c5;stop-opacity:1;"
         id="stop5559-5" />
      <stop
         offset="0.39698008"
         style="stop-color:#a8a8a8;stop-opacity:1;"
         id="stop5561-3" />
      <stop
         offset="1"
         style="stop-color:#828282;stop-opacity:1;"
         id="stop5563-5" />
    </linearGradient>
    <linearGradient
       inkscape:collect="always"
       xlink:href="#linearGradient4288"
       id="linearGradient3353-8"
       gradientUnits="userSpaceOnUse"
       gradientTransform="matrix(1,0,0,0.6592363,-2.0048496,11.166876)"
       x1="10.72043"
       y1="49.805172"
       x2="10.72043"
       y2="-7.1722598" />
    <linearGradient
       id="linearGradient4288">
      <stop
         id="stop4290"
         style="stop-color:#6d6d6d;stop-opacity:1;"
         offset="0" />
      <stop
         id="stop4292"
         style="stop-color:#929292;stop-opacity:1;"
         offset="1" />
    </linearGradient>
    <linearGradient
       inkscape:collect="always"
       xlink:href="#linearGradient3104-5-6"
       id="linearGradient3357"
       gradientUnits="userSpaceOnUse"
       gradientTransform="matrix(1.3394176,0,0,-1.9826305,-5.3543326,103.86293)"
       x1="22.004084"
       y1="63.217903"
       x2="22.004084"
       y2="25.646791" />
    <linearGradient
       id="linearGradient3104-5-6">
      <stop
         offset="0"
         style="stop-color:#aaaaaa;stop-opacity:1"
         id="stop3106-9-1" />
      <stop
         offset="1"
         style="stop-color:#c8c8c8;stop-opacity:1"
         id="stop3108-9" />
    </linearGradient>
    <linearGradient
       x1="23.99999"
       y1="4.999989"
       x2="23.99999"
       y2="43"
       id="linearGradient3084"
       xlink:href="#linearGradient3924"
       gradientUnits="userSpaceOnUse"
       gradientTransform="translate(2.4e-6,0.9674487)" />
    <linearGradient
       id="linearGradient3924">
      <stop
         id="stop3926"
         style="stop-color:#ffffff;stop-opacity:1"
         offset="0" />
      <stop
         id="stop3928"
         style="stop-color:#ffffff;stop-opacity:0.23529412"
         offset="0.06316455" />
      <stop
         id="stop3930"
         style="stop-color:#ffffff;stop-opacity:0.15686275"
         offset="0.95056331" />
      <stop
         id="stop3932"
         style="stop-color:#ffffff;stop-opacity:0.39215687"
         offset="1" />
    </linearGradient>
    <radialGradient
       cx="7.4956832"
       cy="8.4497671"
       r="19.99999"
       fx="7.4956832"
       fy="8.4497671"
       id="radialGradient3093"
       xlink:href="#linearGradient3600"
       gradientUnits="userSpaceOnUse"
       gradientTransform="matrix(0,1.9392804,-2.0515274,-5.2784231e-8,41.335037,-8.486255)" />
    <linearGradient
       id="linearGradient3600">
      <stop
         id="stop3602"
         style="stop-color:#f4f4f4;stop-opacity:1"
         offset="0" />
      <stop
         id="stop3604"
         style="stop-color:#dbdbdb;stop-opacity:1"
         offset="1" />
    </linearGradient>
    <linearGradient
       x1="24"
       y1="44"
       x2="24"
       y2="3.8990016"
       id="linearGradient3095"
       xlink:href="#linearGradient3104"
       gradientUnits="userSpaceOnUse"
       gradientTransform="translate(-6e-7,0.9674387)" />
    <linearGradient
       id="linearGradient3104">
      <stop
         id="stop3106"
         style="stop-color:#aaaaaa;stop-opacity:1"
         offset="0" />
      <stop
         id="stop3108"
         style="stop-color:#c8c8c8;stop-opacity:1"
         offset="1" />
    </linearGradient>
    <linearGradient
       x1="20"
       y1="43"
       x2="20"
       y2="3"
       id="linearGradient3098"
       xlink:href="#linearGradient3104-5"
       gradientUnits="userSpaceOnUse" />
    <linearGradient
       id="linearGradient3104-5">
      <stop
         id="stop3106-9"
         style="stop-color:#aaaaaa;stop-opacity:1"
         offset="0" />
      <stop
         id="stop3108-8"
         style="stop-color:#c8c8c8;stop-opacity:1"
         offset="1" />
    </linearGradient>
    <radialGradient
       cx="4.9929786"
       cy="43.5"
       r="2.5"
       fx="4.9929786"
       fy="43.5"
       id="radialGradient2873-966-168"
       xlink:href="#linearGradient3688-166-749"
       gradientUnits="userSpaceOnUse"
       gradientTransform="matrix(2.003784,0,0,1.4,27.98813,-17.4)" />
    <linearGradient
       id="linearGradient3688-166-749">
      <stop
         id="stop2883"
         style="stop-color:#181818;stop-opacity:1"
         offset="0" />
      <stop
         id="stop2885"
         style="stop-color:#181818;stop-opacity:0"
         offset="1" />
    </linearGradient>
    <radialGradient
       cx="4.9929786"
       cy="43.5"
       r="2.5"
       fx="4.9929786"
       fy="43.5"
       id="radialGradient2875-742-326"
       xlink:href="#linearGradient3688-464-309"
       gradientUnits="userSpaceOnUse"
       gradientTransform="matrix(2.003784,0,0,1.4,-20.01187,-104.4)" />
    <linearGradient
       id="linearGradient3688-464-309">
      <stop
         id="stop2889"
         style="stop-color:#181818;stop-opacity:1"
         offset="0" />
      <stop
         id="stop2891"
         style="stop-color:#181818;stop-opacity:0"
         offset="1" />
    </linearGradient>
    <linearGradient
       x1="25.058096"
       y1="47.027729"
       x2="25.058096"
       y2="39.999443"
       id="linearGradient2877-634-617"
       xlink:href="#linearGradient3702-501-757"
       gradientUnits="userSpaceOnUse" />
    <linearGradient
       id="linearGradient3702-501-757">
      <stop
         id="stop2895"
         style="stop-color:#181818;stop-opacity:0"
         offset="0" />
      <stop
         id="stop2897"
         style="stop-color:#181818;stop-opacity:1"
         offset="0.5" />
      <stop
         id="stop2899"
         style="stop-color:#181818;stop-opacity:0"
         offset="1" />
    </linearGradient>
    <radialGradient
       inkscape:collect="always"
       xlink:href="#linearGradient3600"
       id="radialGradient3819"
       gradientUnits="userSpaceOnUse"
       gradientTransform="matrix(1.3712783,1.3712783,-1.450649,1.4506489,12.602388,-10.945617)"
       cx="7.4956832"
       cy="8.4497671"
       fx="7.4956832"
       fy="8.4497671"
       r="19.99999" />
    <linearGradient
       inkscape:collect="always"
       xlink:href="#linearGradient3104"
       id="linearGradient3821"
       gradientUnits="userSpaceOnUse"
       gradientTransform="matrix(0.70710678,-0.70710678,0.70710678,0.70710678,-9.9411258,24.967439)"
       x1="24"
       y1="44"
       x2="24"
       y2="3.8990016" />
    <radialGradient
       inkscape:collect="always"
       xlink:href="#linearGradient3600"
       id="radialGradient3825"
       gradientUnits="userSpaceOnUse"
       gradientTransform="matrix(0,1.9392804,-2.0515274,-5.2784231e-8,6.3473977,-9.1320422)"
       cx="7.4956832"
       cy="8.4497671"
       fx="7.4956832"
       fy="8.4497671"
       r="19.99999" />
    <linearGradient
       inkscape:collect="always"
       xlink:href="#linearGradient3104"
       id="linearGradient3827"
       gradientUnits="userSpaceOnUse"
       gradientTransform="translate(-34.987639,0.32165172)"
       x1="24"
       y1="44"
       x2="24"
       y2="3.8990016" />
    <radialGradient
       inkscape:collect="always"
       xlink:href="#linearGradient3600"
       id="radialGradient3831"
       gradientUnits="userSpaceOnUse"
       gradientTransform="matrix(0,1.9392804,-2.0515274,-5.2784231e-8,7.0545045,22.283702)"
       cx="7.4956832"
       cy="8.4497671"
       fx="7.4956832"
       fy="8.4497671"
       r="19.99999" />
    <linearGradient
       inkscape:collect="always"
       xlink:href="#linearGradient3104"
       id="linearGradient3833"
       gradientUnits="userSpaceOnUse"
       gradientTransform="translate(-34.280532,31.737396)"
       x1="24"
       y1="44"
       x2="24"
       y2="3.8990016" />
    <radialGradient
       inkscape:collect="always"
       xlink:href="#linearGradient3600"
       id="radialGradient3836"
       gradientUnits="userSpaceOnUse"
       gradientTransform="matrix(0,1.9392804,-2.0515274,-5.2784231e-8,41.335037,-8.486255)"
       cx="7.4956832"
       cy="8.4497671"
       fx="7.4956832"
       fy="8.4497671"
       r="19.99999" />
    <linearGradient
       inkscape:collect="always"
       xlink:href="#linearGradient3104"
       id="linearGradient3838"
       gradientUnits="userSpaceOnUse"
       gradientTransform="translate(-6e-7,0.9674387)"
       x1="24"
       y1="44"
       x2="24"
       y2="3.8990016" />
    <linearGradient
       inkscape:collect="always"
       xlink:href="#linearGradient4288"
       id="linearGradient3841"
       gradientUnits="userSpaceOnUse"
       gradientTransform="translate(-6e-7,0.9674387)"
       x1="24"
       y1="44"
       x2="24"
       y2="3.8990016" />
    <radialGradient
       inkscape:collect="always"
       xlink:href="#linearGradient5344-867-2"
       id="radialGradient3843"
       gradientUnits="userSpaceOnUse"
       gradientTransform="matrix(0,0.74052108,-0.75562297,0,39.250967,0.49926501)"
       cx="7.4956832"
       cy="1.6081963"
       fx="7.4956832"
       fy="1.6081963"
       r="19.99999" />
  </defs>
  <sodipodi:namedview
     id="base"
     pagecolor="#ffffff"
     bordercolor="#666666"
     borderopacity="1.0"
     inkscape:pageopacity="0.0"
     inkscape:pageshadow="2"
     inkscape:zoom="7"
     inkscape:cx="38.928571"
     inkscape:cy="20.285714"
     inkscape:current-layer="layer1"
     showgrid="true"
     inkscape:grid-bbox="true"
     inkscape:document-units="px"
     inkscape:window-width="1798"
     inkscape:window-height="889"
     inkscape:window-x="0"
     inkscape:window-y="48"
     inkscape:window-maximized="0" />
  <metadata
     id="metadata4374">
    <rdf:RDF>
      <cc:Work
         rdf:about="">
        <dc:format>image/svg+xml</dc:format>
        <dc:type
           rdf:resource="http://purl.org/dc/dcmitype/StillImage" />
        <dc:title></dc:title>
      </cc:Work>
    </rdf:RDF>
  </metadata>
  <g
     id="layer1"
     inkscape:label="Layer 1"
     inkscape:groupmode="layer">
    <g
       id="g3845">
      <g
         style="display:inline"
         id="g2036"
         transform="matrix(1.1,0,0,0.4444449,-2.4000022,25.11107)">
        <g
           style="opacity:0.4"
           id="g3712"
           transform="matrix(1.052632,0,0,1.285713,-1.263158,-13.42854)">
          <rect
             style="fill:url(#radialGradient2873-966-168);fill-opacity:1;stroke:none"
             id="rect2801"
             y="40"
             x="38"
             height="7"
             width="5" />
          <rect
             style="fill:url(#radialGradient2875-742-326);fill-opacity:1;stroke:none"
             id="rect3696"
             transform="scale(-1,-1)"
             y="-47"
             x="-10"
             height="7"
             width="5" />
          <rect
             style="fill:url(#linearGradient2877-634-617);fill-opacity:1;stroke:none"
             id="rect3700"
             y="40"
             x="10"
             height="7.0000005"
             width="28" />
        </g>
      </g>
      <path
         style="opacity:0.05;color:#000000;fill:url(#linearGradient3098);fill-opacity:1;fill-rule:nonzero;stroke:none;stroke-width:1;marker:none;visibility:visible;display:inline;overflow:visible;enable-background:accumulate"
         id="path4564-0"
         d="m 22.96875,8.1874998 a 2.9359229,2.9359229 0 0 0 -1.40625,0.40625 L 10.53125,14.96875 A 2.9359229,2.9359229 0 0 0 9.125,17 2.9359229,2.9359229 0 0 0 9.09375,17 2.9359229,2.9359229 0 0 0 8.125,19.1875 L 8.0625,31.90625 a 2.9359229,2.9359229 0 0 0 1,2.1875 2.9359229,2.9359229 0 0 0 0,0.03125 2.9359229,2.9359229 0 0 0 1.4375,2.09375 l 11,6.3125 a 2.9359229,2.9359229 0 0 0 2.40625,0.21875 2.9359229,2.9359229 0 0 0 0.03125,0 2.9359229,2.9359229 0 0 0 2.5,-0.1875 l 11,-6.34375 a 2.9359229,2.9359229 0 0 0 1.40625,-2 2.9359229,2.9359229 0 0 0 1.09375,-2.25 l 0,-12.71875 a 2.9359229,2.9359229 0 0 0 -1,-2.1875 A 2.9359229,2.9359229 0 0 0 37.5,14.96875 L 26.46875,8.6249998 a 2.9359229,2.9359229 0 0 0 -2.40625,-0.25 2.9359229,2.9359229 0 0 0 -1.09375,-0.1875 z"
         inkscape:connector-curvature="0" />
      <rect
         style="color:#000000;fill:url(#radialGradient3093);fill-opacity:1;fill-rule:nonzero;stroke:url(#linearGradient3095);stroke-width:1;stroke-linecap:round;stroke-linejoin:round;stroke-miterlimit:4;stroke-opacity:1;stroke-dasharray:none;stroke-dashoffset:0;marker:none;visibility:visible;display:inline;overflow:visible;enable-background:accumulate"
         id="rect5505-21"
         y="5.4674392"
         x="4.5"
         ry="2"
         rx="2"
         height="39"
         width="39" />
      <rect
         style="fill:none;stroke:url(#linearGradient3084);stroke-width:1;stroke-linecap:round;stroke-linejoin:round;stroke-miterlimit:4;stroke-opacity:1;stroke-dasharray:none;stroke-dashoffset:0"
         id="rect6741-2"
         y="6.4674392"
         x="5.5"
         ry="1"
         rx="1"
         height="37"
         width="37" />
      <path
         sodipodi:nodetypes="ccsssc"
         inkscape:connector-curvature="0"
         id="rect5505-21-0"
         d="m 10,5.4999998 c 0,0 -3.1003072,-0.03125 -3.5,-0.03125 -1.108,0 -2,0.892 -2,2 l 0,35.0000002 c 0,1.108 0.892,2 2,2 l 3.5,0"
         style="color:#000000;fill:url(#radialGradient3351-4);fill-opacity:1;fill-rule:nonzero;stroke:url(#linearGradient3353-8);stroke-width:1;stroke-linecap:butt;stroke-linejoin:round;stroke-miterlimit:4;stroke-opacity:1;stroke-dasharray:none;stroke-dashoffset:0;marker:none;visibility:visible;display:inline;overflow:visible;enable-background:accumulate" />
      <path
         id="rect3815"
         d="M 32.0625 5.46875 L 43.5 16.90625 L 43.5 7.46875 C 43.5 6.36075 42.608 5.46875 41.5 5.46875 L 32.0625 5.46875 z "
         style="color:#000000;fill:url(#radialGradient3843);fill-opacity:1;fill-rule:nonzero;stroke:url(#linearGradient3841);stroke-width:1;stroke-linecap:round;stroke-linejoin:round;stroke-miterlimit:4;stroke-opacity:1;stroke-dasharray:none;stroke-dashoffset:0;marker:none;visibility:visible;display:inline;overflow:visible;enable-background:accumulate" />
      <rect
         style="opacity:0.4;fill:none;stroke:url(#linearGradient3497);stroke-width:1;stroke-linecap:round;stroke-linejoin:round;stroke-miterlimit:4;stroke-opacity:1;stroke-dasharray:none;stroke-dashoffset:0"
         id="rect6741-2-5"
         y="6.4674392"
         x="5.5"
         ry="1"
         rx="1"
         height="37"
         width="37" />
    </g>
  </g>
</svg>

<?xml version="1.0" encoding="UTF-8" standalone="no"?>
<!-- Created with Inkscape (http://www.inkscape.org/) -->
<svg id="svg4369" xmlns:rdf="http://www.w3.org/1999/02/22-rdf-syntax-ns#" xmlns="http://www.w3.org/2000/svg" height="48px" width="48px" version="1.1" xmlns:cc="http://creativecommons.org/ns#" xmlns:xlink="http://www.w3.org/1999/xlink" xmlns:dc="http://purl.org/dc/elements/1.1/">
 <defs id="defs4371">
  <linearGradient id="linearGradient3497" y2="43" gradientUnits="userSpaceOnUse" y1="5" gradientTransform="translate(.0000024 .96745)" x2="24" x1="24">
   <stop id="stop3926-8" stop-color="#fff" offset="0"/>
   <stop id="stop3928-6" stop-color="#fff" stop-opacity=".23529" offset=".063165"/>
   <stop id="stop3930-4" stop-color="#fff" stop-opacity=".15686" offset=".95056"/>
   <stop id="stop3932-4" stop-color="#fff" stop-opacity=".39216" offset="1"/>
  </linearGradient>
  <radialGradient id="radialGradient3351-4" fx="7.2758" xlink:href="#linearGradient5344-867-2" gradientUnits="userSpaceOnUse" cy="9.9571" cx="7.8061" gradientTransform="matrix(-1.6167e-7 4.3522 -8.0922 -1.3064e-7 102.56 -28.435)" r="12.672"/>
  <linearGradient id="linearGradient5344-867-2">
   <stop id="stop5559-5" stop-color="#c5c5c5" offset="0"/>
   <stop id="stop5561-3" stop-color="#a8a8a8" offset=".39698"/>
   <stop id="stop5563-5" stop-color="#828282" offset="1"/>
  </linearGradient>
  <linearGradient id="linearGradient3353-8" y2="-7.1723" xlink:href="#linearGradient4288" gradientUnits="userSpaceOnUse" x2="10.72" gradientTransform="matrix(1 0 0 .65924 -2.0048 11.167)" y1="49.805" x1="10.72"/>
  <linearGradient id="linearGradient4288">
   <stop id="stop4290" stop-color="#6d6d6d" offset="0"/>
   <stop id="stop4292" stop-color="#929292" offset="1"/>
  </linearGradient>
  <linearGradient id="linearGradient3084" y2="43" gradientUnits="userSpaceOnUse" x2="24" gradientTransform="translate(.0000024 .96745)" y1="5" x1="24">
   <stop id="stop3926" stop-color="#fff" offset="0"/>
   <stop id="stop3928" stop-color="#fff" stop-opacity=".23529" offset=".063165"/>
   <stop id="stop3930" stop-color="#fff" stop-opacity=".15686" offset=".95056"/>
   <stop id="stop3932" stop-color="#fff" stop-opacity=".39216" offset="1"/>
  </linearGradient>
  <radialGradient id="radialGradient3093" gradientUnits="userSpaceOnUse" cy="8.4498" cx="7.4957" gradientTransform="matrix(0 1.9393 -2.0515 -5.2784e-8 41.335 -8.4863)" r="20">
   <stop id="stop3602" stop-color="#f4f4f4" offset="0"/>
   <stop id="stop3604" stop-color="#dbdbdb" offset="1"/>
  </radialGradient>
  <linearGradient id="linearGradient3095" y2="3.899" gradientUnits="userSpaceOnUse" x2="24" gradientTransform="translate(-6e-7 .96744)" y1="44" x1="24">
   <stop id="stop3106" stop-color="#aaa" offset="0"/>
   <stop id="stop3108" stop-color="#c8c8c8" offset="1"/>
  </linearGradient>
  <linearGradient id="linearGradient3098" y2="3" gradientUnits="userSpaceOnUse" x2="20" y1="43" x1="20">
   <stop id="stop3106-9" stop-color="#aaa" offset="0"/>
   <stop id="stop3108-8" stop-color="#c8c8c8" offset="1"/>
  </linearGradient>
  <radialGradient id="radialGradient2873-966-168" gradientUnits="userSpaceOnUse" cy="43.5" cx="4.993" gradientTransform="matrix(2.0038 0 0 1.4 27.988 -17.4)" r="2.5">
   <stop id="stop2883" stop-color="#181818" offset="0"/>
   <stop id="stop2885" stop-color="#181818" stop-opacity="0" offset="1"/>
  </radialGradient>
  <radialGradient id="radialGradient2875-742-326" gradientUnits="userSpaceOnUse" cy="43.5" cx="4.993" gradientTransform="matrix(2.0038 0 0 1.4 -20.012 -104.4)" r="2.5">
   <stop id="stop2889" stop-color="#181818" offset="0"/>
   <stop id="stop2891" stop-color="#181818" stop-opacity="0" offset="1"/>
  </radialGradient>
  <linearGradient id="linearGradient2877-634-617" y2="39.999" gradientUnits="userSpaceOnUse" x2="25.058" y1="47.028" x1="25.058">
   <stop id="stop2895" stop-color="#181818" stop-opacity="0" offset="0"/>
   <stop id="stop2897" stop-color="#181818" offset=".5"/>
   <stop id="stop2899" stop-color="#181818" stop-opacity="0" offset="1"/>
  </linearGradient>
  <linearGradient id="linearGradient3841" y2="3.899" xlink:href="#linearGradient4288" gradientUnits="userSpaceOnUse" x2="24" gradientTransform="translate(-6e-7 .96744)" y1="44" x1="24"/>
  <radialGradient id="radialGradient3843" xlink:href="#linearGradient5344-867-2" gradientUnits="userSpaceOnUse" cy="1.6082" cx="7.4957" gradientTransform="matrix(0 .74052 -.75562 0 39.251 .49927)" r="20"/>
 </defs>
 <metadata id="metadata4374">
  <rdf:RDF>
   <cc:Work rdf:about="">
    <dc:format>image/svg+xml</dc:format>
    <dc:type rdf:resource="http://purl.org/dc/dcmitype/StillImage"/>
    <dc:title/>
   </cc:Work>
  </rdf:RDF>
 </metadata>
 <g id="layer1">
  <g id="g3845">
   <g id="g2036" transform="matrix(1.1 0 0 .44444 -2.4 25.111)">
    <g id="g3712" opacity=".4" transform="matrix(1.0526 0 0 1.2857 -1.2632 -13.429)">
     <rect id="rect2801" height="7" width="5" y="40" x="38" fill="url(#radialGradient2873-966-168)"/>
     <rect id="rect3696" transform="scale(-1)" height="7" width="5" y="-47" x="-10" fill="url(#radialGradient2875-742-326)"/>
     <rect id="rect3700" height="7" width="28" y="40" x="10" fill="url(#linearGradient2877-634-617)"/>
    </g>
   </g>
   <path id="path4564-0" opacity=".05" style="color:#000000" d="m22.969 8.1875a2.9359 2.9359 0 0 0 -1.4062 0.40625l-11.032 6.3752a2.9359 2.9359 0 0 0 -1.406 2.031 2.9359 2.9359 0 0 0 -0.0312 0 2.9359 2.9359 0 0 0 -0.9688 2.188l-0.0625 12.718a2.9359 2.9359 0 0 0 1 2.1875 2.9359 2.9359 0 0 0 0 0.03125 2.9359 2.9359 0 0 0 1.4375 2.0938l11 6.3125a2.9359 2.9359 0 0 0 2.4062 0.21875 2.9359 2.9359 0 0 0 0.03125 0 2.9359 2.9359 0 0 0 2.5 -0.1875l11-6.3438a2.9359 2.9359 0 0 0 1.4062 -2 2.9359 2.9359 0 0 0 1.0938 -2.25v-12.719a2.9359 2.9359 0 0 0 -1 -2.1875 2.9359 2.9359 0 0 0 -1.437 -2.093l-11.031-6.344a2.9359 2.9359 0 0 0 -2.4062 -0.25 2.9359 2.9359 0 0 0 -1.0938 -0.1875z" fill="url(#linearGradient3098)"/>
   <rect id="rect5505-21" stroke-linejoin="round" height="39" stroke="url(#linearGradient3095)" stroke-linecap="round" fill="url(#radialGradient3093)" style="color:#000000" rx="2" ry="2" width="39" y="5.4674" x="4.5"/>
   <rect id="rect6741-2" stroke-linejoin="round" rx="1" ry="1" height="37" width="37" stroke="url(#linearGradient3084)" stroke-linecap="round" y="6.4674" x="5.5" fill="none"/>
   <path id="rect5505-21-0" stroke-linejoin="round" style="color:#000000" d="m10 5.5s-3.1003-0.03125-3.5-0.03125c-1.108 0-2 0.892-2 2v35c0 1.108 0.892 2 2 2h3.5" stroke="url(#linearGradient3353-8)" fill="url(#radialGradient3351-4)"/>
   <path id="rect3815" stroke-linejoin="round" style="color:#000000" d="m32.062 5.4688l11.438 11.437v-9.4372c0-1.108-0.892-2-2-2h-9.438z" stroke="url(#linearGradient3841)" stroke-linecap="round" fill="url(#radialGradient3843)"/>
   <rect id="rect6741-2-5" opacity=".4" stroke-linejoin="round" rx="1" ry="1" height="37" width="37" stroke="url(#linearGradient3497)" stroke-linecap="round" y="6.4674" x="5.5" fill="none"/>
  </g>
 </g>
</svg>
